src/images/icons/adapted.svg

<svg width="61" height="62" viewBox="0 0 61 62" fill="none" xmlns="http://www.w3.org/2000/svg">
<g clip-path="url(#clip0_1_2687)">
<path d="M13.8721 50.7998C18.1733 50.7998 43.0568 50.7998 47.353 50.7998C47.5188 46.9739 47.2453 40.626 44.8978 37.6047L44.8129 37.4962L39.6831 34.9153C39.7945 34.5389 39.8493 34.194 39.8713 33.9405C39.8967 33.6363 39.8548 33.3504 39.7464 33.0915C38.9001 31.0623 37.1093 29.9947 36.1243 29.5396C36.4245 28.9335 36.618 28.2829 36.7115 27.6182C37.2691 27.4608 37.7176 27.018 37.8646 26.4273L38.4634 23.9898C38.5695 23.5598 38.5029 23.1138 38.2748 22.7346C38.1767 22.5711 38.0498 22.4334 37.9074 22.3157C39.5956 18.4732 36.7681 14.8501 36.6141 14.6594C33.5519 11.3418 29.6834 11.9621 29.4789 11.9989C23.8963 13.1703 21.7419 17.4575 22.9582 22.4856C22.5979 22.8856 22.4466 23.4428 22.5802 23.9892L23.1819 26.4293C23.3278 27.0157 23.7727 27.4569 24.3264 27.6162C24.4972 28.8336 25.0114 29.9347 25.7667 30.822V32.7544C17.7555 36.8653 22.8316 34.2426 16.4116 37.4971C16.3989 37.5578 13.3991 40.7524 13.845 50.2213L13.8721 50.7998ZM46.1896 49.5852H40.6793V47.2658L44.3238 38.9056C46.1495 41.9421 46.2173 47.7399 46.1896 49.5852ZM38.6691 33.8373C38.4564 36.285 37.1169 35.5452 36.2899 37.431C35.6395 36.7143 35.4439 35.8549 35.6187 34.9351C35.9345 33.246 34.9057 32.7444 35.1599 30.9696L35.1985 30.9289V30.9233C35.2203 30.8988 35.4232 30.6567 35.4819 30.5802C37.662 31.5325 38.7116 33.3036 38.6691 33.8373ZM26.9737 31.9134C27.9857 32.6168 29.2074 33.0325 30.5215 33.0325C31.759 33.0325 32.9344 32.6717 33.9421 32.0073C34.0818 33.4025 34.626 33.6818 34.4329 34.7085C34.3967 34.8991 34.3771 35.0869 34.3655 35.2716L30.6128 39.5097L25.8157 34.0904L26.9737 33.4844V31.9134H26.9737ZM25.465 26.7268V24.377C25.465 23.5118 25.465 20.0789 25.465 20.2484C26.049 19.1661 26.8452 18.3812 27.8347 17.9106C30.4848 19.4131 33.5352 21.6554 35.5809 23.9121C35.579 26.7861 35.589 26.7939 35.57 27.03L35.5687 27.045C35.409 29.6547 33.2676 31.8179 30.5215 31.8179C27.8518 31.8179 25.6353 29.7176 25.475 27.0191C25.4667 26.9225 25.465 26.8255 25.465 26.7268ZM24.7177 34.6765L30.6128 41.3357L34.5706 36.866C34.6611 37.127 34.788 37.3735 34.9331 37.6117L30.6128 43.0253L24.1705 34.9517L24.7177 34.6765ZM36.7879 25.7494V23.8732C36.8409 23.8123 37.2909 23.2953 37.2379 23.3563C37.2627 24.3062 37.3651 23.185 36.7879 25.7494ZM29.7023 13.1925C29.9417 13.2074 33.1587 12.7021 35.7012 15.4526C35.8013 15.5785 37.8709 18.2505 37.0394 21.1736C36.7549 19.8729 36.2588 18.2061 35.4749 17.4106L34.618 18.2658C35.392 19.0514 35.9004 21.4437 36.0941 22.6839C32.5436 18.9611 27.9635 16.6048 27.9007 16.5649C27.671 16.7081 25.7328 17.0773 24.3252 19.8188L24.258 19.9498V21.9633C24.1976 21.9639 24.0201 21.9658 24.0806 21.9652C23.1862 17.6384 24.8989 14.2013 29.7023 13.1925ZM23.9534 23.2146L24.258 24.4512V25.7509L23.7518 23.6977C23.6775 23.3917 23.9037 23.2756 23.9534 23.2146ZM23.066 35.5074L30.6128 44.9653L35.7189 38.566C36.2744 39.0641 36.5414 39.1348 37.7191 39.7416L37.3219 38.3914C37.2211 38.0487 37.6201 37.4989 37.8611 37.2462C38.3991 36.9538 38.8475 36.5368 39.183 36.0219L43.349 38.1181L39.4723 47.0113V49.5852H21.7527V47.011L17.8743 38.1189L23.066 35.5074ZM16.9007 38.9083L20.5458 47.2661V49.5852H15.0355C15.0078 47.7405 15.0761 41.9457 16.9007 38.9083Z" fill="#FF6B09"/>
</g>
<path d="M60 9.23529V1H1V61H60V52.7647" stroke="#FF6B09" stroke-width="2"/>
<defs>
<clipPath id="clip0_1_2687">
<rect width="33.1915" height="40.0816" fill="white" transform="translate(14 11.0205)"/>
</clipPath>
</defs>
</svg>

<svg width="61" height="62" fill="none" xmlns="http://www.w3.org/2000/svg"><g clip-path="url(#a)"><path d="M13.872 50.8h33.481c.166-3.826-.108-10.174-2.455-13.195l-.085-.109-5.13-2.58c.111-.377.166-.722.188-.975a1.792 1.792 0 0 0-.125-.85c-.846-2.029-2.637-3.096-3.622-3.551.3-.607.494-1.257.587-1.922a1.647 1.647 0 0 0 1.154-1.19l.598-2.438c.106-.43.04-.876-.188-1.255a1.641 1.641 0 0 0-.368-.42c1.689-3.842-1.139-7.465-1.293-7.656-3.062-3.317-6.93-2.697-7.135-2.66-5.583 1.171-7.737 5.458-6.52 10.487-.361.4-.512.957-.379 1.503l.602 2.44c.146.587.59 1.028 1.144 1.187a6.284 6.284 0 0 0 1.44 3.206v1.932c-8.01 4.111-2.934 1.489-9.354 4.743-.013.06-3.013 3.255-2.567 12.724l.027.579zm32.318-1.215h-5.51v-2.32l3.644-8.36c1.826 3.037 1.893 8.835 1.866 10.68zm-7.52-15.748c-.214 2.448-1.553 1.708-2.38 3.594-.65-.717-.846-1.576-.671-2.496.316-1.689-.713-2.19-.46-3.965l.04-.041v-.006c.021-.024.224-.266.283-.343 2.18.953 3.23 2.724 3.187 3.257zm-11.696-1.924a6.198 6.198 0 0 0 6.968.094c.14 1.396.684 1.675.49 2.702-.035.19-.055.378-.067.563l-3.752 4.238-4.797-5.42 1.158-.606v-1.57zm-1.509-5.186V20.248c.584-1.082 1.38-1.867 2.37-2.337 2.65 1.502 5.7 3.744 7.746 6.001-.002 2.874.008 2.882-.011 3.118l-.001.015c-.16 2.61-2.301 4.773-5.048 4.773-2.67 0-4.886-2.1-5.046-4.799a3.41 3.41 0 0 1-.01-.292zm-.747 7.95 5.895 6.659 3.958-4.47c.09.261.217.508.362.746l-4.32 5.413-6.442-8.073.547-.276zm12.07-8.928v-1.876l.45-.517c.025.95.127-.171-.45 2.393zm-7.086-12.556c.24.014 3.457-.49 6 2.26.1.126 2.169 2.797 1.337 5.72-.284-1.3-.78-2.967-1.564-3.762l-.857.855c.774.785 1.282 3.178 1.476 4.418-3.55-3.723-8.13-6.08-8.193-6.12-.23.144-2.168.513-3.576 3.255l-.067.13v2.014l-.177.002c-.895-4.327.818-7.764 5.621-8.772zm-5.749 10.022.305 1.236v1.3l-.506-2.053c-.075-.306.152-.422.201-.483zm-.887 12.292 7.547 9.458 5.106-6.399c.555.498.822.569 2 1.176l-.397-1.35c-.1-.343.298-.893.54-1.146.537-.292.985-.71 1.321-1.224l4.166 2.096-3.877 8.893v2.574h-17.72v-2.574l-3.878-8.892 5.192-2.612zm-6.165 3.401 3.645 8.358v2.32h-5.51c-.028-1.846.04-7.64 1.865-10.678z" fill="#FF6B09"/></g><path d="M60 9.235V1H1v60h59v-8.235" stroke="#FF6B09" stroke-width="2"/><defs><clipPath id="a"><path fill="#fff" transform="translate(14 11.02)" d="M0 0h33.191v40.082H0z"/></clipPath></defs></svg>
